toolkits/global/packages/global-context/img/icons/location.svg

<svg height="24" viewBox="0 0 24 24" width="24" xmlns="http://www.w3.org/2000/svg"><path d="m12.3952133 19.2688008c.7959634-.7770119 1.5920815-1.6299956 2.3328565-2.5295081 1.4020032-1.7024324 2.4323601-3.3624519 2.9354918-4.871847.2228715-.6686145.3364384-1.2932325.3364384-1.8674457 0-3.3137085-2.6862915-6-6-6-3.36356866 0-6 2.60156856-6 6 0 .5742132.11356691 1.1988312.3364384 1.8674457.50313169 1.5093951 1.53348863 3.1694146 2.93549184 4.871847.74077496.8995125 1.53689306 1.7524962 2.33285646 2.5295081.1369448.1336842.2689568.2602648.3952133.3793207.1262565-.1190559.2582685-.2456365.3952133-.3793207zm-.3952133 1.7311992s-7-6-7-11c0-4 3.13400675-7 7-7 3.8659932 0 7 3.13400675 7 7 0 5-7 11-7 11zm0-8c-1.6568542 0-3-1.3431458-3-3 0-1.65685425 1.3431458-3 3-3s3 1.34314575 3 3c0 1.6568542-1.3431458 3-3 3zm0-1c1.1045695 0 2-.8954305 2-2s-.8954305-2-2-2-2 .8954305-2 2 .8954305 2 2 2z" fill="#666" fill-rule="evenodd"/></svg>

<?xml version="1.0" encoding="UTF-8"?>
<svg width="24px" height="24px" viewBox="0 0 24 24" version="1.1" xmlns="http://www.w3.org/2000/svg" xmlns:xlink="http://www.w3.org/1999/xlink">
    <!-- Generator: Sketch 63.1 (92452) - https://sketch.com -->
    <title>icon-icon / location</title>
    <desc>Created with Sketch.</desc>
    <g id="icon-/-location" stroke="none" stroke-width="1" fill="none" fill-rule="evenodd">
        <path d="M12.3952133,19.2688008 C13.1911767,18.4917889 13.9872948,17.6388052 14.7280698,16.7392927 C16.130073,15.0368603 17.1604299,13.3768408 17.6635616,11.8674457 C17.8864331,11.1988312 18,10.5742132 18,10 C18,6.6862915 15.3137085,4 12,4 C8.63643134,4 6,6.60156856 6,10 C6,10.5742132 6.11356691,11.1988312 6.3364384,11.8674457 C6.83957009,13.3768408 7.86992703,15.0368603 9.27193024,16.7392927 C10.0127052,17.6388052 10.8088233,18.4917889 11.6047867,19.2688008 C11.7417315,19.402485 11.8737435,19.5290656 12,19.6481215 C12.1262565,19.5290656 12.2582685,19.402485 12.3952133,19.2688008 Z M12,21 C12,21 5,15 5,10 C5,6 8.13400675,3 12,3 C15.8659932,3 19,6.13400675 19,10 C19,15 12,21 12,21 Z M12,13 C10.3431458,13 9,11.6568542 9,10 C9,8.34314575 10.3431458,7 12,7 C13.6568542,7 15,8.34314575 15,10 C15,11.6568542 13.6568542,13 12,13 Z M12,12 C13.1045695,12 14,11.1045695 14,10 C14,8.8954305 13.1045695,8 12,8 C10.8954305,8 10,8.8954305 10,10 C10,11.1045695 10.8954305,12 12,12 Z" id="location" fill="#666666"></path>
    </g>
</svg>
